X: 25546
T: Marina's
R: waltz
M: 3/4
K: Dmajor
|:A2|d3A FA|c3AFA|B2d3B|A4F2|
G3F ED|E4 DE|F2A3F|E4A2|
d3AFA|e3AFA|f3ed2|g6|
f3ed2|B4A2|Bd3 e2|d4:|
|:cd|e2A2c2|e2g3g|f3e dB|A4 AG|
F3A cd|c4A2|G2B2ed|c4A2|
d3AFA|e3AFA|f3ed2|g6|
f3ed2|B4A2|Bd3 e2|d4:|

